site/public/social-linkedin.svg

<svg width="26" height="26" viewBox="0 0 26 26" fill="none" xmlns="http://www.w3.org/2000/svg">
<path d="M22.1509 22.1563H18.3008V16.1233C18.3008 14.6846 18.2715 12.8332 16.2944 12.8332C14.287 12.8332 13.9804 14.3986 13.9804 16.0171V22.1563H10.1302V9.75H13.8288V11.4411H13.8786C14.3953 10.4661 15.652 9.43692 17.5294 9.43692C21.4305 9.43692 22.152 12.0044 22.152 15.3465V22.1563H22.1509ZM5.78175 8.05242C5.48803 8.05256 5.19717 7.99478 4.92582 7.88238C4.65446 7.76998 4.40793 7.60517 4.20034 7.39738C3.99275 7.18959 3.82818 6.9429 3.71604 6.67143C3.60391 6.39997 3.54641 6.10905 3.54683 5.81533C3.54705 5.37309 3.6784 4.94085 3.92427 4.57326C4.17014 4.20567 4.5195 3.91925 4.92815 3.75021C5.33681 3.58117 5.78642 3.53711 6.22012 3.62359C6.65382 3.71008 7.05213 3.92323 7.36469 4.23609C7.67725 4.54895 7.89001 4.94747 7.97608 5.38126C8.06215 5.81504 8.01765 6.2646 7.84821 6.6731C7.67878 7.08159 7.39201 7.43067 7.02419 7.67618C6.65636 7.9217 6.22399 8.05263 5.78175 8.05242ZM7.71225 22.1563H3.85125V9.75H7.71225V22.1563ZM24.0771 0H1.91858C0.858 0 0 0.8385 0 1.87308V24.1269C0 25.1626 0.858 26 1.91858 26H24.0738C25.1333 26 26 25.1626 26 24.1269V1.87308C26 0.8385 25.1333 0 24.0738 0H24.0771Z" fill="black"/>
</svg>

<svg xmlns="http://www.w3.org/2000/svg" fill="none" width="26" height="26" viewBox="0 0 26 26"><path d="M22.15 22.156H18.3v-6.033c0-1.438-.029-3.29-2.006-3.29-2.007 0-2.314 1.566-2.314 3.184v6.14h-3.85V9.75h3.699v1.691h.05c.513-.975 1.77-2.004 3.65-2.004 3.898 0 4.619 2.567 4.619 5.91v6.81ZM5.783 8.052a2.234 2.234 0 0 1-1.858-3.479 2.236 2.236 0 1 1 1.858 3.48Zm1.93 14.104h-3.86V9.75h3.86v12.406ZM24.077 0H1.92C.857 0 0 .839 0 1.873v22.254C0 25.163.857 26 1.918 26h22.155c1.06 0 1.926-.837 1.926-1.873V1.873C26 .84 25.133 0 24.074 0h.003Z" fill="#000"/></svg>
